app/assets/meetups/dataforeningen.svg

<svg id="dataforeninge-logo" viewBox="0 0 65 65">
    <path d="M45.229 22.315c0 .988-.176 2.533.396 3.423.65 1.013 1.575-.695 1.575-1.318v-7.072h-.055c-1.487 1.269-1.916 2.214-1.916 4.967zM57.156 8.106h-21.091c-.524 0-.949.424-.949.95v21.097c0 .526.425.951.949.951h21.091c.527 0 .954-.425.954-.951v-21.097c0-.526-.426-.95-.954-.95zm-8.121 19.068c-.839 0-1.271-.538-1.595-1.026-.756.861-2.044 1.43-3.042.639-1.02-.808-1.133-2.438-1.162-3.624-.031-1.306-.012-2.724.692-3.873.349-.569.822-1.053 1.312-1.502.545-.498 1.543-.999 1.842-1.69.424-.982.302-2.771-1.019-2.771-.789 0-1.646.462-2.236.957-.803.672-.155-.464.086-.728.836-.915 2.025-1.67 3.294-1.266 1.399.446 1.883 1.904 1.883 3.25v9.799c0 .821.729.821 1.132.215l.136-.108.078.136c-.105.782-.728 1.592-1.401 1.592zM42.843 43.262c-1.973 1.373-.454 3.56 1.48 3.734 2.201.198 4.194-1.2 5.541-2.811v-1.318c-2.07-.346-5.159-.913-7.021.395zM57.156 31.102h-21.091c-.524 0-.949.425-.949.949v21.1c0 .525.425.949.949.949h21.091c.527 0 .954-.424.954-.949v-21.1c0-.525-.426-.949-.954-.949zm-3.704 17.044h-3.563v-2.22c-1.64 1.582-3.836 2.864-6.195 2.457-1.742-.301-3.369-1.729-3.278-3.612.213-4.421 6.615-3.802 9.449-3.357v-.818c0-4.082-5.544-2.808-7.921-1.66l-.369-1.427c3.283-1.355 9.711-2.436 9.711 2.823v6.36h2.167v1.454zM21.853 17.896l-3.227.522c-1.384.225-2.544 1.518-2.476 2.944.068 1.427 1.376 2.31 2.74 2.09l3.174-.516c1.375-.222 2.569-1.49 2.505-2.919-.063-1.392-1.368-2.339-2.716-2.121zM33.145 24.893l-3.345-20.832c-.08-.519-.567-.872-1.09-.788l-20.822 3.341c-.523.082-.874.572-.788 1.09l3.342 20.832c.086.518.573.87 1.09.789l20.828-3.343c.514-.084.866-.571.785-1.089zm-7.674-5.24c-.204 3.682-4.899 7.825-8.527 5.653-1.941-1.162-2.041-3.663-1.203-5.55.926-2.085 2.931-3.783 5.208-4.152l2.448-.398.395-5.595c.044-.71.308-1.453.859-1.928.428-.369 1.578-.652 1.554.256l-.734 11.714zM34.162 31.102h-21.089c-.524 0-.951.425-.951.949v21.1c0 .525.427.949.951.949h21.089c.524 0 .951-.424.951-.949v-21.1c0-.525-.426-.949-.951-.949zm-8.033 8.074h-1.979v8.344c0 1.302.632 2.114 1.979 1.786v1.491c-2.259 1.124-3.988-1.114-3.988-3.131v-8.49h-1.175v-1.469h1.175v-3.033l2.01-.759v3.792h1.979v1.469zM14.465 60.372c-.232.256-1.117.083-1.429.083-1.279 0-.987-1.624-.987-2.471 0-1.142 1.218-.992 2.002-.992v-1.23c0-.527.489-.082.489.26v3.418c0 .212.106.751-.075.932zm-.414-2.883h-1.015c-.769 0-.5 1.509-.5 1.979 0 .691 1.086.489 1.515.489v-2.468zM17.677 60.372c-.238.284-1.343.083-1.678.083-.913 0-.985-1.651-.221-1.941.417-.158 1.025-.04 1.461-.04v-.489c0-.691-1.051-.495-1.483-.495-.45 0-.192-.497.155-.497h.834c.976 0 .986.915.986 1.628 0 .411.2 1.391-.054 1.751zm-.438-1.403h-1.24c-.383 0-.363.989.129.989h1.111v-.989zM20.064 57.489h-.743v2.72c0 .377-.487.263-.487-.069v-2.65h-.251c-.449 0-.172-.59.251-.497v-1.23c0-.526.487-.083.487.266v.965h.743c.322-.002.324.495 0 .495zM23.005 60.372c-.248.284-1.336.083-1.678.083-.913 0-.986-1.651-.222-1.941.417-.158 1.026-.04 1.463-.04v-.489c0-.69-1.053-.495-1.484-.495-.447 0-.192-.497.154-.497h.831c.979 0 .986.912.986 1.628 0 .399.201 1.403-.05 1.751zm-.437-1.403h-1.241c-.383 0-.363.989.129.989h1.112v-.989zM25.405 57.489h-.74v2.72c0 .377-.49.263-.49-.069v-2.65h-.251c-.45 0-.173-.59.251-.497v-.493c0-.722.591-1.017 1.23-.992.453 0 .182.59-.243.498-.565 0-.497.599-.497.986h.74c.323 0 .324.497 0 .497zM27.518 60.46c-1.289 0-1.235-1.317-1.235-2.229.046-1.585 2.468-1.601 2.468 0 .089.906-.035 2.22-1.233 2.229zm.746-2.23c0-.817-1.193-1.012-1.45-.234-.121.366-.038.849-.038 1.227 0 .957 1.487.953 1.487 0v-.993zM31.219 57.954c-.306.17-.429-.379-.688-.448-.202-.054-.455-.017-.661-.017v2.72c0 .357-.494.264-.494-.063v-2.902c0-.388.75-.251.981-.251.31-.001 1.487.644.862.961zM33.838 60.455h-1.238c-1.129 0-.989-1.206-.989-1.981l.011-.243c.071-1.751 2.525-1.479 2.461.243v.251c0 .451-1.668.244-1.972.244v.5c0 .727 1.271.489 1.728.489.313 0 .315.497-.001.497zm-.246-2.225c0-1.103-1.546-.845-1.481.243h1.481v-.243zM36.929 60.455c-.474 0-.246-2.125-.246-2.471 0-.689-1.051-.495-1.481-.495v2.72c0 .369-.497.271-.497-.063v-2.902c0-.434 1.221-.251 1.484-.251 1.405-.001 1.171 3.462.74 3.462zM37.73 55.762c0-.424.622-.424.622 0 .001.412-.622.412-.622 0zm.309 4.693c-.48 0-.241-2.8-.241-3.212 0-.442.495-.198.495.139v1.056c0 .269.219 2.017-.254 2.017zM41.283 60.455c-.474 0-.246-2.124-.246-2.471 0-.689-1.057-.495-1.484-.495v2.72c0 .37-.497.271-.497-.063v-2.902c0-.434 1.224-.251 1.484-.251 1.407-.001 1.163 3.462.743 3.462zM44.345 61.655c-.419.415-1.161.281-1.7.281-.447 0-.191-.497.154-.497h.832c.566 0 .498-.595.498-.984h-.992c-1.277 0-.987-1.629-.987-2.471 0-1.215 1.408-.992 2.226-.992.425 0 .462 4.17-.031 4.663zm-.216-4.166h-.992c-.756-.049-.492 1.544-.492 1.979 0 .688 1.048.489 1.484.489v-2.468zM47.469 60.455h-1.241c-1.127 0-.984-1.208-.984-1.981l.008-.243c.071-1.752 2.525-1.478 2.461.243v.251c0 .452-1.672.244-1.974.244v.5c0 .727 1.275.489 1.73.489.312 0 .315.497 0 .497zm-.246-2.225c0-1.102-1.549-.846-1.484.243h1.484v-.243zM50.557 60.455c-.474 0-.246-2.126-.246-2.471 0-.689-1.051-.495-1.481-.495v2.72c0 .369-.497.271-.497-.063v-2.902c0-.434 1.223-.251 1.484-.251 1.405-.001 1.171 3.462.74 3.462zM51.426 60.137c0-.433.643-.433.643 0-.001.428-.643.428-.643 0zM54.766 60.455c-.474 0-.246-2.124-.246-2.471 0-.689-1.058-.495-1.484-.495v2.72c0 .369-.497.271-.497-.063v-2.902c0-.434 1.224-.251 1.484-.251 1.406-.001 1.163 3.462.743 3.462zM56.87 60.46c-1.292 0-1.238-1.314-1.238-2.229.048-1.585 2.469-1.602 2.469 0 .089.905-.034 2.22-1.231 2.229zm.741-2.23c0-.818-1.188-1.011-1.446-.234-.122.365-.038.849-.038 1.227 0 .955 1.484.955 1.484 0v-.993z"/>
</svg>

<?xml version="1.0" standalone="no"?><!-- Generator: Gravit.io --><svg xmlns="http://www.w3.org/2000/svg" xmlns:xlink="http://www.w3.org/1999/xlink" style="isolation:isolate" viewBox="0 0 65 65" width="65" height="65"><defs><clipPath id="_clipPath_7ydMF9e383juWjUBcoxfYFe1uFnTJadM"><rect width="65" height="65"/></clipPath></defs><g clip-path="url(#_clipPath_7ydMF9e383juWjUBcoxfYFe1uFnTJadM)"><path d=" M 45.229 22.315 C 45.229 23.303 45.053 24.848 45.625 25.738 C 46.275 26.751 47.2 25.043 47.2 24.42 L 47.2 17.348 L 47.145 17.348 C 45.658 18.617 45.229 19.562 45.229 22.315 Z  M 57.156 8.106 L 36.065 8.106 C 35.541 8.106 35.116 8.53 35.116 9.056 L 35.116 30.153 C 35.116 30.679 35.541 31.104 36.065 31.104 L 57.156 31.104 C 57.683 31.104 58.11 30.679 58.11 30.153 L 58.11 9.056 C 58.11 8.53 57.684 8.106 57.156 8.106 Z  M 49.035 27.174 C 48.196 27.174 47.764 26.636 47.44 26.148 C 46.684 27.009 45.396 27.578 44.398 26.787 C 43.378 25.979 43.265 24.349 43.236 23.163 C 43.205 21.857 43.224 20.439 43.928 19.29 C 44.277 18.721 44.75 18.237 45.24 17.788 C 45.785 17.29 46.783 16.789 47.082 16.098 C 47.506 15.116 47.384 13.327 46.063 13.327 C 45.274 13.327 44.417 13.789 43.827 14.284 C 43.024 14.956 43.672 13.82 43.913 13.556 C 44.749 12.641 45.938 11.886 47.207 12.29 C 48.606 12.736 49.09 14.194 49.09 15.54 L 49.09 25.339 C 49.09 26.16 49.819 26.16 50.222 25.554 L 50.358 25.446 L 50.436 25.582 C 50.331 26.364 49.708 27.174 49.035 27.174 Z  M 42.843 43.262 C 40.87 44.635 42.389 46.822 44.323 46.996 C 46.524 47.194 48.517 45.796 49.864 44.185 L 49.864 42.867 C 47.794 42.521 44.705 41.954 42.843 43.262 Z  M 57.156 31.102 L 36.065 31.102 C 35.541 31.102 35.116 31.527 35.116 32.051 L 35.116 53.151 C 35.116 53.676 35.541 54.1 36.065 54.1 L 57.156 54.1 C 57.683 54.1 58.11 53.676 58.11 53.151 L 58.11 32.051 C 58.11 31.526 57.684 31.102 57.156 31.102 Z  M 53.452 48.146 L 49.889 48.146 L 49.889 45.926 C 48.249 47.508 46.053 48.79 43.694 48.383 C 41.952 48.082 40.325 46.654 40.416 44.771 C 40.629 40.35 47.031 40.969 49.865 41.414 L 49.865 40.596 C 49.865 36.514 44.321 37.788 41.944 38.936 L 41.575 37.509 C 44.858 36.154 51.286 35.073 51.286 40.332 L 51.286 46.692 L 53.453 46.692 L 53.453 48.146 L 53.452 48.146 Z  M 21.853 17.896 L 18.626 18.418 C 17.242 18.643 16.082 19.936 16.15 21.362 C 16.218 22.789 17.526 23.672 18.89 23.452 L 22.064 22.936 C 23.439 22.714 24.633 21.446 24.569 20.017 C 24.506 18.625 23.201 17.678 21.853 17.896 Z  M 33.145 24.893 L 29.8 4.061 C 29.72 3.542 29.233 3.189 28.71 3.273 L 7.888 6.614 C 7.365 6.696 7.014 7.186 7.1 7.704 L 10.442 28.536 C 10.528 29.054 11.015 29.406 11.532 29.325 L 32.36 25.982 C 32.874 25.898 33.226 25.411 33.145 24.893 Z  M 25.471 19.653 C 25.267 23.335 20.572 27.478 16.944 25.306 C 15.003 24.144 14.903 21.643 15.741 19.756 C 16.667 17.671 18.672 15.973 20.949 15.604 L 23.397 15.206 L 23.792 9.611 C 23.836 8.901 24.1 8.158 24.651 7.683 C 25.079 7.314 26.229 7.031 26.205 7.939 L 25.471 19.653 L 25.471 19.653 Z  M 34.162 31.102 L 13.073 31.102 C 12.549 31.102 12.122 31.527 12.122 32.051 L 12.122 53.151 C 12.122 53.676 12.549 54.1 13.073 54.1 L 34.162 54.1 C 34.686 54.1 35.113 53.676 35.113 53.151 L 35.113 32.051 C 35.113 31.526 34.687 31.102 34.162 31.102 Z  M 26.129 39.176 L 24.15 39.176 L 24.15 47.52 C 24.15 48.822 24.782 49.634 26.129 49.306 L 26.129 50.797 C 23.87 51.921 22.141 49.683 22.141 47.666 L 22.141 39.176 L 20.966 39.176 L 20.966 37.707 L 22.141 37.707 L 22.141 34.674 L 24.151 33.915 L 24.151 37.707 L 26.13 37.707 L 26.13 39.176 L 26.129 39.176 Z  M 14.465 60.372 C 14.233 60.628 13.348 60.455 13.036 60.455 C 11.757 60.455 12.049 58.831 12.049 57.984 C 12.049 56.842 13.267 56.992 14.051 56.992 L 14.051 55.762 C 14.051 55.235 14.54 55.68 14.54 56.022 L 14.54 59.44 C 14.54 59.652 14.646 60.191 14.465 60.372 Z  M 14.051 57.489 L 13.036 57.489 C 12.267 57.489 12.536 58.998 12.536 59.468 C 12.536 60.159 13.622 59.957 14.051 59.957 L 14.051 57.489 L 14.051 57.489 Z  M 17.677 60.372 C 17.439 60.656 16.334 60.455 15.999 60.455 C 15.086 60.455 15.014 58.804 15.778 58.514 C 16.195 58.356 16.803 58.474 17.239 58.474 L 17.239 57.985 C 17.239 57.294 16.188 57.49 15.756 57.49 C 15.306 57.49 15.564 56.993 15.911 56.993 L 16.745 56.993 C 17.721 56.993 17.731 57.908 17.731 58.621 C 17.731 59.032 17.931 60.012 17.677 60.372 Z  M 17.239 58.969 L 15.999 58.969 C 15.616 58.969 15.636 59.958 16.128 59.958 L 17.239 59.958 L 17.239 58.969 L 17.239 58.969 Z  M 20.064 57.489 L 19.321 57.489 L 19.321 60.209 C 19.321 60.586 18.834 60.472 18.834 60.14 L 18.834 57.49 L 18.583 57.49 C 18.134 57.49 18.411 56.9 18.834 56.993 L 18.834 55.763 C 18.834 55.237 19.321 55.68 19.321 56.029 L 19.321 56.994 L 20.064 56.994 C 20.386 56.992 20.388 57.489 20.064 57.489 Z  M 23.005 60.372 C 22.757 60.656 21.669 60.455 21.327 60.455 C 20.414 60.455 20.341 58.804 21.105 58.514 C 21.522 58.356 22.131 58.474 22.568 58.474 L 22.568 57.985 C 22.568 57.295 21.515 57.49 21.084 57.49 C 20.637 57.49 20.892 56.993 21.238 56.993 L 22.069 56.993 C 23.048 56.993 23.055 57.905 23.055 58.621 C 23.055 59.02 23.256 60.024 23.005 60.372 Z  M 22.568 58.969 L 21.327 58.969 C 20.944 58.969 20.964 59.958 21.456 59.958 L 22.568 59.958 L 22.568 58.969 L 22.568 58.969 Z  M 25.405 57.489 L 24.665 57.489 L 24.665 60.209 C 24.665 60.586 24.175 60.472 24.175 60.14 L 24.175 57.49 L 23.924 57.49 C 23.474 57.49 23.751 56.9 24.175 56.993 L 24.175 56.5 C 24.175 55.778 24.766 55.483 25.405 55.508 C 25.858 55.508 25.587 56.098 25.162 56.006 C 24.597 56.006 24.665 56.605 24.665 56.992 L 25.405 56.992 C 25.728 56.992 25.729 57.489 25.405 57.489 Z  M 27.518 60.46 C 26.229 60.46 26.283 59.143 26.283 58.231 C 26.329 56.646 28.751 56.63 28.751 58.231 C 28.84 59.137 28.716 60.451 27.518 60.46 Z  M 28.264 58.23 C 28.264 57.413 27.071 57.218 26.814 57.996 C 26.693 58.362 26.776 58.845 26.776 59.223 C 26.776 60.18 28.263 60.176 28.263 59.223 L 28.263 58.23 L 28.264 58.23 Z  M 31.219 57.954 C 30.913 58.124 30.79 57.575 30.531 57.506 C 30.329 57.452 30.076 57.489 29.87 57.489 L 29.87 60.209 C 29.87 60.566 29.376 60.473 29.376 60.146 L 29.376 57.244 C 29.376 56.856 30.126 56.993 30.357 56.993 C 30.667 56.992 31.844 57.637 31.219 57.954 Z  M 33.838 60.455 L 32.6 60.455 C 31.471 60.455 31.611 59.249 31.611 58.474 L 31.622 58.231 C 31.693 56.48 34.147 56.752 34.083 58.474 L 34.083 58.725 C 34.083 59.176 32.415 58.969 32.111 58.969 L 32.111 59.469 C 32.111 60.196 33.382 59.958 33.839 59.958 C 34.152 59.958 34.154 60.455 33.838 60.455 Z  M 33.592 58.23 C 33.592 57.127 32.046 57.385 32.111 58.473 L 33.592 58.473 L 33.592 58.23 L 33.592 58.23 Z  M 36.929 60.455 C 36.455 60.455 36.683 58.33 36.683 57.984 C 36.683 57.295 35.632 57.489 35.202 57.489 L 35.202 60.209 C 35.202 60.578 34.705 60.48 34.705 60.146 L 34.705 57.244 C 34.705 56.81 35.926 56.993 36.189 56.993 C 37.594 56.992 37.36 60.455 36.929 60.455 Z  M 37.73 55.762 C 37.73 55.338 38.352 55.338 38.352 55.762 C 38.353 56.174 37.73 56.174 37.73 55.762 Z  M 38.039 60.455 C 37.559 60.455 37.798 57.655 37.798 57.243 C 37.798 56.801 38.293 57.045 38.293 57.382 L 38.293 58.438 C 38.293 58.707 38.512 60.455 38.039 60.455 Z  M 41.283 60.455 C 40.809 60.455 41.037 58.331 41.037 57.984 C 41.037 57.295 39.98 57.489 39.553 57.489 L 39.553 60.209 C 39.553 60.579 39.056 60.48 39.056 60.146 L 39.056 57.244 C 39.056 56.81 40.28 56.993 40.54 56.993 C 41.947 56.992 41.703 60.455 41.283 60.455 Z  M 44.345 61.655 C 43.926 62.07 43.184 61.936 42.645 61.936 C 42.198 61.936 42.454 61.439 42.799 61.439 L 43.631 61.439 C 44.197 61.439 44.129 60.844 44.129 60.455 L 43.137 60.455 C 41.86 60.455 42.15 58.826 42.15 57.984 C 42.15 56.769 43.558 56.992 44.376 56.992 C 44.801 56.992 44.838 61.162 44.345 61.655 Z  M 44.129 57.489 L 43.137 57.489 C 42.381 57.44 42.645 59.033 42.645 59.468 C 42.645 60.156 43.693 59.957 44.129 59.957 L 44.129 57.489 L 44.129 57.489 Z  M 47.469 60.455 L 46.228 60.455 C 45.101 60.455 45.244 59.247 45.244 58.474 L 45.252 58.231 C 45.323 56.479 47.777 56.753 47.713 58.474 L 47.713 58.725 C 47.713 59.177 46.041 58.969 45.739 58.969 L 45.739 59.469 C 45.739 60.196 47.014 59.958 47.469 59.958 C 47.781 59.958 47.784 60.455 47.469 60.455 Z  M 47.223 58.23 C 47.223 57.128 45.674 57.384 45.739 58.473 L 47.223 58.473 L 47.223 58.23 L 47.223 58.23 Z  M 50.557 60.455 C 50.083 60.455 50.311 58.329 50.311 57.984 C 50.311 57.295 49.26 57.489 48.83 57.489 L 48.83 60.209 C 48.83 60.578 48.333 60.48 48.333 60.146 L 48.333 57.244 C 48.333 56.81 49.556 56.993 49.817 56.993 C 51.222 56.992 50.988 60.455 50.557 60.455 Z  M 51.426 60.137 C 51.426 59.704 52.069 59.704 52.069 60.137 C 52.068 60.565 51.426 60.565 51.426 60.137 Z  M 54.766 60.455 C 54.292 60.455 54.52 58.331 54.52 57.984 C 54.52 57.295 53.462 57.489 53.036 57.489 L 53.036 60.209 C 53.036 60.578 52.539 60.48 52.539 60.146 L 52.539 57.244 C 52.539 56.81 53.763 56.993 54.023 56.993 C 55.429 56.992 55.186 60.455 54.766 60.455 Z  M 56.87 60.46 C 55.578 60.46 55.632 59.146 55.632 58.231 C 55.68 56.646 58.101 56.629 58.101 58.231 C 58.19 59.136 58.067 60.451 56.87 60.46 Z  M 57.611 58.23 C 57.611 57.412 56.423 57.219 56.165 57.996 C 56.043 58.361 56.127 58.845 56.127 59.223 C 56.127 60.178 57.611 60.178 57.611 59.223 L 57.611 58.23 L 57.611 58.23 Z " fill="rgb(0,0,0)"/></g></svg>
